public/img/Bag.svg

<svg width="51" height="51" viewBox="0 0 51 51" fill="none" xmlns="http://www.w3.org/2000/svg">
<path d="M17 17L17 14.875C17 10.1806 20.8056 6.375 25.5 6.375V6.375C30.1944 6.375 34 10.1806 34 14.875L34 17" stroke="#FBF5EC" stroke-width="2" stroke-linecap="round"/>
<path d="M31.875 29.75V25.5" stroke="#FBF5EC" stroke-width="2" stroke-linecap="round"/>
<path d="M19.125 29.75V25.5" stroke="#FBF5EC" stroke-width="2" stroke-linecap="round"/>
<path d="M8.5 21C8.5 19.1144 8.5 18.1716 9.08579 17.5858C9.67157 17 10.6144 17 12.5 17H38.5C40.3856 17 41.3284 17 41.9142 17.5858C42.5 18.1716 42.5 19.1144 42.5 21V36.625C42.5 40.3962 42.5 42.2819 41.3284 43.4534C40.1569 44.625 38.2712 44.625 34.5 44.625H16.5C12.7288 44.625 10.8431 44.625 9.67157 43.4534C8.5 42.2819 8.5 40.3962 8.5 36.625V21Z" stroke="#FBF5EC" stroke-width="2"/>
</svg>

<svg width="51" height="51" fill="none" xmlns="http://www.w3.org/2000/svg"><path d="M17 17v-2.125a8.5 8.5 0 0 1 8.5-8.5v0a8.5 8.5 0 0 1 8.5 8.5V17m-2.125 12.75V25.5m-12.75 4.25V25.5" stroke="#FBF5EC" stroke-width="2" stroke-linecap="round"/><path d="M8.5 21c0-1.886 0-2.828.586-3.414C9.672 17 10.614 17 12.5 17h26c1.886 0 2.828 0 3.414.586.586.586.586 1.528.586 3.414v15.625c0 3.771 0 5.657-1.172 6.828-1.171 1.172-3.057 1.172-6.828 1.172h-18c-3.771 0-5.657 0-6.828-1.172C8.5 42.282 8.5 40.396 8.5 36.625V21Z" stroke="#FBF5EC" stroke-width="2"/></svg>
